material/.icons/material/dev-to.svg

<svg xmlns="http://www.w3.org/2000/svg" viewBox="0 0 24 24"><path d="M7.73 11.93c0 1.72-.02 1.83-.23 2.07-.19.17-.38.23-.76.23l-.51.01-.03-2.27-.02-2.27h.52c.35 0 .6.07.77.21.24.21.26.25.26 2.02M22 7.5v9c0 1.11-.89 2-2 2H4c-1.11 0-2-.89-2-2v-9c0-1.11.89-2 2-2h16c1.11 0 2 .89 2 2M8.93 11.73c-.03-1.84-.05-1.99-.29-2.39-.4-.68-.85-.84-2.36-.84H5v7h1.21c1.33 0 1.89-.17 2.29-.71.41-.53.5-.98.43-3.06m4.19-3.23h-1.48c-1.49 0-1.5 0-1.71.28S9.7 9.21 9.7 12v2.96l.27.27c.25.27.31.27 1.71.27h1.44v-1.19l-1.09-.04-1.1-.03V12.6l.68-.03.66-.04v-1.19h-1.39V9.7h2.24V8.5m5.88.06c0-.06-.3-.06-.66-.06l-.68.06-.59 2.35c-.38 1.48-.62 2.27-.67 2.13-.08-.27-1.14-4.44-1.14-4.49 0-.05-.31-.05-.68-.05h-.69l.41 1.55c.2.87.59 2.28.81 3.15.34 1.35.46 1.65.75 1.94.2.22.45.36.61.36.33 0 .76-.34.9-.73C17.5 14.5 19 8.69 19 8.56z"/></svg>

<?xml version="1.0" encoding="UTF-8"?><!DOCTYPE svg PUBLIC "-//W3C//DTD SVG 1.1//EN" "http://www.w3.org/Graphics/SVG/1.1/DTD/svg11.dtd"><svg xmlns="http://www.w3.org/2000/svg" xmlns:xlink="http://www.w3.org/1999/xlink" version="1.1" id="mdi-dev-to" width="24" height="24" viewBox="0 0 24 24"><path d="M7.73 11.93C7.73 13.65 7.71 13.76 7.5 14C7.31 14.17 7.12 14.23 6.74 14.23L6.23 14.24L6.2 11.97L6.18 9.7H6.7C7.05 9.7 7.3 9.77 7.47 9.91C7.71 10.12 7.73 10.16 7.73 11.93M22 7.5V16.5C22 17.61 21.11 18.5 20 18.5H4C2.89 18.5 2 17.61 2 16.5V7.5C2 6.39 2.89 5.5 4 5.5H20C21.11 5.5 22 6.39 22 7.5M8.93 11.73C8.9 9.89 8.88 9.74 8.64 9.34C8.24 8.66 7.79 8.5 6.28 8.5H5V15.5H6.21C7.54 15.5 8.1 15.33 8.5 14.79C8.91 14.26 9 13.81 8.93 11.73M13.12 8.5H11.64C10.15 8.5 10.14 8.5 9.93 8.78S9.7 9.21 9.7 12V14.96L9.97 15.23C10.22 15.5 10.28 15.5 11.68 15.5H13.12V14.31L12.03 14.27L10.93 14.24V12.6L11.61 12.57L12.27 12.53V11.34H10.88V9.7H13.12V8.5M19 8.56C19 8.5 18.7 8.5 18.34 8.5L17.66 8.56L17.07 10.91C16.69 12.39 16.45 13.18 16.4 13.04C16.32 12.77 15.26 8.6 15.26 8.55C15.26 8.5 14.95 8.5 14.58 8.5H13.89L14.3 10.05C14.5 10.92 14.89 12.33 15.11 13.2C15.45 14.55 15.57 14.85 15.86 15.14C16.06 15.36 16.31 15.5 16.47 15.5C16.8 15.5 17.23 15.16 17.37 14.77C17.5 14.5 19 8.69 19 8.56Z" /></svg>
